packages/calcite-ui-icons/icons/bezier-curve-32.svg

<?xml version="1.0" encoding="UTF-8"?><svg id="icons" xmlns="http://www.w3.org/2000/svg" viewBox="0 0 32 32"><defs><style>.cls-1{fill:none;}</style></defs><path d="M22,3v3h1v4.5c0,3.03271-2.46777,5.5-5.5,5.5h-4c-3.58398,0-6.5,2.91602-6.5,6.5v3.5h-1v3h3v-3h-1v-3.5c0-3.03271,2.46777-5.5,5.5-5.5h4c3.58398,0,6.491-2.91602,6.491-6.5l.009-4.5h1v-3h-3ZM8,28h-1v-1h1v1ZM24,5h-1v-1h1v1Z"/><rect class="cls-1" y="0" width="32" height="32"/></svg>

<svg xmlns="http://www.w3.org/2000/svg" viewBox="0 0 32 32"><path d="M22 3v3h1v4.5c0 3.033-2.468 5.5-5.5 5.5h-4A6.508 6.508 0 0 0 7 22.5V26H6v3h3v-3H8v-3.5c0-3.033 2.468-5.5 5.5-5.5h4c3.584 0 6.491-2.916 6.491-6.5L24 6h1V3h-3zM8 28H7v-1h1v1zM24 5h-1V4h1v1z"/><path fill="none" d="M0 0h32v32H0z"/></svg>
